static/images/jetpack/jetpack-manage.svg

<?xml version="1.0" encoding="UTF-8" standalone="no"?>
<svg width="149px" height="152px" viewBox="0 0 149 152" version="1.1" xmlns="http://www.w3.org/2000/svg" xmlns:xlink="http://www.w3.org/1999/xlink">
    <defs>
        <path id="path-1" d="M3.179,74.127 C3.179,79.75 3.856,85.214 5.098,90.461 L5.098,90.461 C7.113,91.011 9.253,91.211 11.334,91.079 L11.334,91.079 C28.144,90.009 40.038,77.347 51.167,66.272 L51.167,66.272 C51.468,65.974 56.434,61.033 56.434,61.033 L56.434,61.033 L62.188,66.758 C60.994,68.854 59.603,70.791 58.11,72.653 L58.11,72.653 L65.795,80.299 L29.019,116.892 L30.339,118.206 L24.117,124.398 C37.041,137.251 54.89,145.2 74.607,145.2 L74.607,145.2 C114.055,145.2 146.034,113.378 146.034,74.127 L146.034,74.127 C146.034,34.874 114.055,3.054 74.607,3.054 L74.607,3.054 C35.16,3.054 3.179,34.874 3.179,74.127 L3.179,74.127 Z"></path>
        <path id="path-3" d="M90.028,23.327 C90.028,23.327 83.224,28.307 82.773,28.977 L82.773,28.977 C82.324,29.65 84.572,34.349 85.048,34.547 L85.048,34.547 C85.524,34.747 94.323,34.426 94.323,34.426 L94.323,34.426 L97.287,29.029 L91.41,23.236 L90.028,23.327 Z"></path>
        <path id="path-5" d="M70.126,40.414 L48.479,61.955 L59.706,73.128 L87.62,45.353 L82.718,40.477 L82.655,40.413 C80.926,38.692 78.659,37.832 76.392,37.832 L76.392,37.832 C74.124,37.831 71.857,38.692 70.126,40.414 L70.126,40.414 Z"></path>
        <path id="path-7" d="M70.126,40.414 L48.479,61.955 L59.706,73.128 L87.62,45.353 L82.718,40.477 L82.655,40.413 C80.925,38.692 78.658,37.831 76.392,37.831 L76.392,37.831 C74.124,37.831 71.857,38.693 70.126,40.414 L70.126,40.414 Z"></path>
        <path id="path-9" d="M124.168,13.25 L124.168,15.971 L113.967,21.062 C108.645,23.719 104.128,27.665 100.761,32.486 L100.761,32.486 L96.374,28.12 L96.369,28.125 L92.937,31.54 C91.651,32.819 89.564,32.819 88.277,31.54 L88.277,31.54 L86.898,30.167 C86.232,29.505 86.232,28.429 86.898,27.767 L86.898,27.767 L91.433,23.254 C91.428,23.25 91.42,23.244 91.414,23.24 L91.414,23.24 L91.41,23.236 L91.41,23.236 C88.837,21.172 85.062,21.329 82.672,23.706 L82.672,23.706 L74.269,32.069 L82.76,40.517 C76.803,41.891 71.763,45.861 69.069,51.359 L69.069,51.359 L60.264,69.335 C53.161,71.992 47.486,77.724 45.036,85.121 L45.036,85.121 L38.031,106.271 L36.587,106.985 C28.924,110.766 22.718,116.942 18.916,124.568 L18.916,124.568 L13.488,135.455 L9.353,134.454 C7.646,134.042 5.925,135.085 5.511,136.784 L5.511,136.784 L1.886,151.628 L8.907,144.642 L8.907,144.644 L57.663,96.129 C58.921,96.971 60.253,97.713 61.654,98.344 L61.654,98.344 L80.989,107.045 C75.857,107.886 70.909,109.737 66.454,112.533 L66.454,112.533 L56.207,118.971 L53.373,116.148 C52.234,115.016 50.389,115.016 49.251,116.148 L49.251,116.148 L38.763,126.585 L47.411,124.494 L47.408,124.497 L79.328,116.786 L86.916,114.953 C88.46,114.572 89.753,113.81 90.755,112.812 L90.755,112.812 C93.796,109.786 94.168,104.583 90.758,101.189 L90.758,101.189 L71.879,82.405 L77.736,78.003 L100.619,78.004 L100.618,78.003 L100.744,78.003 C101.882,78.004 102.889,77.45 103.514,76.601 L103.514,76.601 C103.523,76.588 103.534,76.577 103.544,76.566 L103.544,76.566 L103.541,76.564 C103.939,76.006 104.177,75.325 104.177,74.588 L104.177,74.588 L104.177,71.347 C104.177,70.304 103.328,69.458 102.279,69.458 L102.279,69.458 L99.022,69.458 C97.126,69.458 95.589,70.988 95.59,72.875 L95.59,72.875 L95.59,73.938 L89.06,71.78 C88.335,71.541 87.603,71.332 86.867,71.14 L86.867,71.14 L89.388,69.246 C93.55,66.119 96.004,61.239 96.026,56.049 L96.026,56.049 L96.062,47.679 L134.984,8.95 L128.491,8.949 C126.105,8.95 124.168,10.875 124.168,13.25 L124.168,13.25 Z"></path>
    </defs>
    <g id="Page-1" stroke="none" stroke-width="1" fill="none" fill-rule="evenodd">
        <g id="Artboard-1">
            <path d="M74.6066,3.0535 C35.1596,3.0535 3.1796,34.8735 3.1796,74.1265 C3.1796,79.7495 3.8556,85.2135 5.0976,90.4615 C7.1126,91.0115 9.2536,91.2115 11.3336,91.0785 C28.1446,90.0085 40.0376,77.3475 51.1666,66.2725 C51.4686,65.9735 56.4336,61.0325 56.4336,61.0325 L62.1886,66.7585 C60.9936,68.8535 59.6026,70.7905 58.1096,72.6535 L65.7946,80.2985 L29.0186,116.8915 L30.3386,118.2065 L24.1166,124.3975 C37.0406,137.2505 54.8906,145.1995 74.6066,145.1995 C114.0546,145.1995 146.0336,113.3775 146.0336,74.1265 C146.0336,34.8735 114.0546,3.0535 74.6066,3.0535" id="Fill-1"></path>
            <mask id="mask-2" fill="white">
                <use xlink:href="#path-1"></use>
            </mask>
            <g id="Clip-4"></g>
            <path d="M-160,197 L308,197 L308,-282 L-160,-282 L-160,197 Z" id="Fill-3" fill="#D8DEE4" mask="url(#mask-2)"></path>
            <path d="M-1.821,-1.947 L151.034,-1.947 L151.034,150.199 L-1.821,150.199 L-1.821,-1.947 Z" id="Fill-5" fill="#D8DEE4" mask="url(#mask-2)"></path>
            <mask id="mask-4" fill="white">
                <use xlink:href="#path-3"></use>
            </mask>
            <g id="Clip-8"></g>
            <path d="M77.714,18.236 L102.286,18.236 L102.286,39.613 L77.714,39.613 L77.714,18.236 Z" id="Fill-7" fill="#FFFFFF" mask="url(#mask-4)"></path>
            <path d="M70.1268,40.4142 L48.4788,61.9552 L59.7058,73.1272 L87.6198,45.3522 L82.7188,40.4772 L82.6558,40.4132 C79.1958,36.9712 73.5868,36.9712 70.1268,40.4142" id="Fill-10" fill="#B2B2B2" mask="url(#mask-4)"></path>
            <mask id="mask-6" fill="white">
                <use xlink:href="#path-5"></use>
            </mask>
            <g id="Clip-13"></g>
            <path d="M-160,197 L308,197 L308,-282 L-160,-282 L-160,197 Z" id="Fill-12" fill="#B2B2B2" mask="url(#mask-6)"></path>
            <mask id="mask-8" fill="white">
                <use xlink:href="#path-7"></use>
            </mask>
            <g id="Clip-16"></g>
            <path d="M43.479,32.832 L92.62,32.832 L92.62,78.127 L43.479,78.127 L43.479,32.832 Z" id="Fill-15" fill="#F6F6F6" mask="url(#mask-8)"></path>
            <path d="M128.4912,8.9484 C126.1042,8.9494 124.1682,10.8744 124.1682,13.2504 L124.1682,15.9714 L113.9672,21.0614 C108.6462,23.7184 104.1282,27.6654 100.7612,32.4864 L96.3732,28.1204 L96.3692,28.1244 L92.9372,31.5394 C91.6502,32.8194 89.5642,32.8194 88.2772,31.5394 L86.8982,30.1674 C86.2322,29.5044 86.2322,28.4294 86.8982,27.7674 L91.4332,23.2544 C91.4272,23.2494 91.4202,23.2444 91.4142,23.2394 L91.4112,23.2364 L91.4092,23.2364 C88.8362,21.1724 85.0612,21.3284 82.6722,23.7064 L74.2692,32.0684 L82.7602,40.5174 C76.8022,41.8914 71.7622,45.8614 69.0692,51.3594 L60.2642,69.3344 C53.1612,71.9924 47.4862,77.7244 45.0362,85.1214 L38.0322,106.2714 L36.5872,106.9844 C28.9242,110.7664 22.7182,116.9424 18.9162,124.5674 L13.4882,135.4554 L9.3532,134.4544 C7.6462,134.0424 5.9252,135.0854 5.5102,136.7834 L1.8852,151.6284 L8.9062,144.6414 L8.9062,144.6444 L57.6632,96.1294 C58.9202,96.9714 60.2532,97.7134 61.6542,98.3434 L80.9892,107.0444 C75.8562,107.8854 70.9092,109.7364 66.4542,112.5334 L56.2072,118.9704 L53.3722,116.1484 C52.2342,115.0164 50.3892,115.0164 49.2512,116.1484 L38.7632,126.5854 L47.4112,124.4944 L47.4082,124.4964 L79.3282,116.7854 L86.9152,114.9534 C88.4602,114.5724 89.7522,113.8104 90.7552,112.8124 C93.7962,109.7864 94.1682,104.5824 90.7582,101.1894 L71.8792,82.4044 L77.7352,78.0024 L100.6192,78.0034 L100.6182,78.0024 L100.7442,78.0024 C101.8822,78.0034 102.8892,77.4504 103.5132,76.6004 C103.5232,76.5874 103.5342,76.5774 103.5442,76.5654 L103.5402,76.5644 C103.9392,76.0054 104.1772,75.3254 104.1772,74.5884 L104.1772,71.3474 C104.1772,70.3044 103.3282,69.4584 102.2792,69.4584 L99.0222,69.4584 C97.1262,69.4584 95.5892,70.9884 95.5902,72.8744 L95.5902,73.9374 L89.0592,71.7804 C88.3352,71.5404 87.6032,71.3314 86.8672,71.1404 L89.3882,69.2464 C93.5502,66.1194 96.0042,61.2384 96.0262,56.0494 L96.0612,47.6794 L134.9842,8.9494 L128.4912,8.9484" id="Fill-18" mask="url(#mask-8)"></path>
            <mask id="mask-10" fill="white">
                <use xlink:href="#path-9"></use>
            </mask>
            <g id="Clip-21"></g>
            <path d="M-160,197 L308,197 L308,-282 L-160,-282 L-160,197 Z" id="Fill-20" fill="#B2C5D1" mask="url(#mask-10)"></path>
            <path d="M-4,4 L139.099,4 L139.099,156.68 L-4,156.68 L-4,4 Z" id="Fill-22" mask="url(#mask-10)"></path>
        </g>
    </g>
</svg>

<svg height="152" viewBox="0 0 149 152" width="149" xmlns="http://www.w3.org/2000/svg" xmlns:xlink="http://www.w3.org/1999/xlink"><mask id="a" fill="#fff"><path d="m3.179 74.127c0 5.623.677 11.087 1.919 16.334 2.015.55 4.155.75 6.236.618 16.81-1.07 28.704-13.732 39.833-24.807.301-.298 5.267-5.239 5.267-5.239l5.754 5.725c-1.194 2.096-2.585 4.033-4.078 5.895l7.685 7.646-36.776 36.593 1.32 1.314-6.222 6.192c12.924 12.853 30.773 20.802 50.49 20.802 39.448 0 71.427-31.822 71.427-71.073 0-39.253-31.979-71.073-71.427-71.073-39.447 0-71.428 31.82-71.428 71.073z" fill="#fff" fill-rule="evenodd"/></mask><mask id="b" fill="#fff"><path d="m90.028 23.327s-6.804 4.98-7.255 5.65c-.449.673 1.799 5.372 2.275 5.57.476.2 9.275-.121 9.275-.121l2.964-5.397-5.877-5.793z" fill="#fff" fill-rule="evenodd"/></mask><mask id="c" fill="#fff"><path d="m70.126 40.414-21.647 21.541 11.227 11.173 27.914-27.775-4.902-4.876-.063-.064c-1.729-1.721-3.996-2.581-6.263-2.581-2.268-.001-4.535.86-6.266 2.582z" fill="#fff" fill-rule="evenodd"/></mask><mask id="d" fill="#fff"><path d="m70.126 40.414-21.647 21.541 11.227 11.173 27.914-27.775-4.902-4.876-.063-.064c-1.73-1.721-3.997-2.582-6.263-2.582-2.268 0-4.535.862-6.266 2.583z" fill="#fff" fill-rule="evenodd"/></mask><mask id="e" fill="#fff"><path d="m124.168 13.25v2.721l-10.201 5.091c-5.322 2.657-9.839 6.603-13.206 11.424l-4.387-4.366-.005.005-3.432 3.415c-1.286 1.279-3.373 1.279-4.66 0l-1.379-1.373c-.666-.662-.666-1.738 0-2.4l4.535-4.513c-.005-.004-.013-.01-.019-.014l-.004-.004c-2.573-2.064-6.348-1.907-8.738.47l-8.403 8.363 8.491 8.448c-5.957 1.374-10.997 5.344-13.691 10.842l-8.805 17.976c-7.103 2.657-12.778 8.389-15.228 15.786l-7.005 21.15-1.444.714c-7.663 3.781-13.869 9.957-17.671 17.583l-5.428 10.887-4.135-1.001c-1.707-.412-3.428.631-3.842 2.33l-3.625 14.844 7.021-6.986v.002l48.756-48.515c1.258.842 2.59 1.584 3.991 2.215l19.335 8.701c-5.132.841-10.08 2.692-14.535 5.488l-10.247 6.438-2.834-2.823c-1.139-1.132-2.984-1.132-4.122 0l-10.488 10.437 8.648-2.091-.003.003 31.92-7.711 7.588-1.833c1.544-.381 2.837-1.143 3.839-2.141 3.041-3.026 3.413-8.229.003-11.623l-18.879-18.784 5.857-4.402 22.883.001-.001-.001h.126c1.138.001 2.145-.553 2.77-1.402.009-.013.02-.024.03-.035l-.003-.002c.398-.558.636-1.239.636-1.976v-3.241c0-1.043-.849-1.889-1.898-1.889h-3.257c-1.896 0-3.433 1.53-3.432 3.417v1.063l-6.53-2.158c-.725-.239-1.457-.448-2.193-.64l2.521-1.894c4.162-3.127 6.616-8.007 6.638-13.197l.036-8.37 38.922-38.729-6.493-.001c-2.386.001-4.323 1.926-4.323 4.301z" fill="#fff" fill-rule="evenodd"/></mask><g fill="none" fill-rule="evenodd"><path d="m74.6066 3.0535c-39.447 0-71.427 31.82-71.427 71.073 0 5.623.676 11.087 1.918 16.335 2.015.55 4.156.75 6.236.617 16.811-1.07 28.704-13.731 39.833-24.806.302-.299 5.267-5.24 5.267-5.24l5.755 5.726c-1.195 2.095-2.586 4.032-4.079 5.895l7.685 7.645-36.776 36.593 1.32 1.315-6.222 6.191c12.924 12.853 30.774 20.802 50.49 20.802 39.448 0 71.427-31.822 71.427-71.073 0-39.253-31.979-71.073-71.427-71.073"/><path d="m-160 197h468v-479h-468z" fill="#d8dee4" mask="url(#a)"/><path d="m-1.821-1.947h152.855v152.146h-152.855z" fill="#d8dee4" mask="url(#a)"/><path d="m77.714 18.236h24.572v21.377h-24.572z" fill="#fff" mask="url(#b)"/><path d="m70.1268 40.4142-21.648 21.541 11.227 11.172 27.914-27.775-4.901-4.875-.063-.064c-3.46-3.442-9.069-3.442-12.529.001" fill="#b2b2b2" mask="url(#b)"/><path d="m-160 197h468v-479h-468z" fill="#b2b2b2" mask="url(#c)"/><path d="m43.479 32.832h49.141v45.295h-49.141z" fill="#f6f6f6" mask="url(#d)"/><path d="m128.4912 8.9484c-2.387.001-4.323 1.926-4.323 4.302v2.721l-10.201 5.09c-5.321 2.657-9.839 6.604-13.206 11.425l-4.388-4.366-.004.004-3.432 3.415c-1.287 1.28-3.373 1.28-4.66 0l-1.379-1.372c-.666-.663-.666-1.738 0-2.4l4.535-4.513c-.006-.005-.013-.01-.019-.015l-.003-.003h-.002c-2.573-2.064-6.348-1.908-8.737.47l-8.403 8.362 8.491 8.449c-5.958 1.374-10.998 5.344-13.691 10.842l-8.805 17.975c-7.103 2.658-12.778 8.39-15.228 15.787l-7.004 21.15-1.445.713c-7.663 3.782-13.869 9.958-17.671 17.583l-5.428 10.888-4.135-1.001c-1.707-.412-3.428.631-3.843 2.329l-3.625 14.845 7.021-6.987v.003l48.757-48.515c1.257.842 2.59 1.584 3.991 2.214l19.335 8.701c-5.133.841-10.08 2.692-14.535 5.489l-10.247 6.437-2.835-2.822c-1.138-1.132-2.983-1.132-4.121 0l-10.488 10.437 8.648-2.091-.003.002 31.92-7.711 7.587-1.832c1.545-.381 2.837-1.143 3.84-2.141 3.041-3.026 3.413-8.23.003-11.623l-18.879-18.785 5.856-4.402 22.884.001-.001-.001h.126c1.138.001 2.145-.552 2.769-1.402.01-.013.021-.023.031-.035l-.004-.001c.399-.559.637-1.239.637-1.976v-3.241c0-1.043-.849-1.889-1.898-1.889h-3.257c-1.896 0-3.433 1.53-3.432 3.416v1.063l-6.531-2.157c-.724-.24-1.456-.449-2.192-.64l2.521-1.894c4.162-3.127 6.616-8.008 6.638-13.197l.035-8.37 38.923-38.73z" mask="url(#d)"/><path d="m-160 197h468v-479h-468z" fill="#b2c5d1" mask="url(#e)"/><path d="m-4 4h143.099v152.68h-143.099z" mask="url(#e)"/></g></svg>
